flaticon/interaction/user-39.svg

<svg xmlns="http://www.w3.org/2000/svg" width="32" height="32" viewBox="0 0 24 24">
    <path d="M 19.035156 13.65625 C 16.296875 13.65625 14.070312 15.882812 14.070312 18.621094 C 14.070312 21.359375 16.296875 23.585938 19.035156 23.585938 C 21.773438 23.585938 24 21.359375 24 18.621094 C 24 15.882812 21.773438 13.65625 19.035156 13.65625 Z M 19.035156 22.757812 C 16.753906 22.757812 14.898438 20.902344 14.898438 18.621094 C 14.898438 16.339844 16.753906 14.484375 19.035156 14.484375 C 21.316406 14.484375 23.171875 16.339844 23.171875 18.621094 C 23.171875 20.902344 21.316406 22.757812 19.035156 22.757812 Z M 19.035156 22.757812"/>
    <path d="M 21.515625 18.207031 L 19.449219 18.207031 L 19.449219 16.136719 C 19.449219 15.910156 19.261719 15.722656 19.035156 15.722656 C 18.804688 15.722656 18.621094 15.910156 18.621094 16.136719 L 18.621094 18.621094 C 18.621094 18.847656 18.804688 19.035156 19.035156 19.035156 L 21.515625 19.035156 C 21.746094 19.035156 21.929688 18.847656 21.929688 18.621094 C 21.929688 18.390625 21.746094 18.207031 21.515625 18.207031 Z M 21.515625 18.207031"/>
    <path d="M 11.378906 22.34375 C 11.117188 22.34375 10.855469 22.332031 10.59375 22.3125 C 10.550781 22.308594 10.503906 22.304688 10.460938 22.300781 C 10.199219 22.277344 9.9375 22.246094 9.679688 22.207031 C 9.667969 22.203125 9.65625 22.203125 9.644531 22.199219 C 9.097656 22.109375 8.558594 21.972656 8.035156 21.796875 C 8.019531 21.792969 8 21.785156 7.984375 21.78125 C 7.726562 21.691406 7.46875 21.59375 7.214844 21.484375 C 7.210938 21.484375 7.210938 21.484375 7.210938 21.484375 C 6.96875 21.378906 6.734375 21.265625 6.503906 21.144531 C 6.472656 21.128906 6.441406 21.117188 6.414062 21.097656 C 6.203125 20.988281 5.996094 20.863281 5.789062 20.738281 C 5.730469 20.699219 5.671875 20.660156 5.609375 20.621094 C 5.421875 20.5 5.238281 20.371094 5.058594 20.234375 C 5.039062 20.222656 5.019531 20.207031 5 20.191406 C 5.015625 20.183594 5.027344 20.175781 5.042969 20.171875 L 8.3125 18.386719 C 8.875 18.078125 9.226562 17.488281 9.226562 16.847656 L 9.226562 15.359375 L 9.128906 15.242188 C 9.121094 15.234375 8.226562 14.144531 7.886719 12.671875 L 7.851562 12.507812 L 7.710938 12.414062 C 7.511719 12.285156 7.390625 12.070312 7.390625 11.839844 L 7.390625 10.371094 C 7.390625 10.179688 7.472656 10 7.621094 9.867188 L 7.757812 9.742188 L 7.757812 7.4375 L 7.753906 7.382812 C 7.753906 7.375 7.632812 6.378906 8.332031 5.578125 C 8.929688 4.898438 9.957031 4.550781 11.378906 4.550781 C 12.796875 4.550781 13.820312 4.894531 14.417969 5.570312 C 15.121094 6.363281 15.003906 7.375 15.003906 7.386719 L 15 9.742188 L 15.136719 9.867188 C 15.285156 10 15.367188 10.179688 15.367188 10.375 L 15.367188 11.839844 C 15.367188 12.136719 15.167969 12.402344 14.878906 12.492188 C 14.660156 12.558594 14.539062 12.792969 14.605469 13.007812 C 14.671875 13.226562 14.902344 13.347656 15.121094 13.28125 C 15.765625 13.085938 16.195312 12.503906 16.195312 11.839844 L 16.195312 10.375 C 16.195312 10.015625 16.0625 9.667969 15.828125 9.394531 L 15.828125 7.460938 C 15.847656 7.246094 15.925781 6.035156 15.046875 5.035156 C 14.285156 4.164062 13.050781 3.722656 11.378906 3.722656 C 9.707031 3.722656 8.472656 4.164062 7.710938 5.035156 C 6.832031 6.035156 6.910156 7.246094 6.929688 7.460938 L 6.929688 9.394531 C 6.695312 9.667969 6.5625 10.015625 6.5625 10.371094 L 6.5625 11.839844 C 6.5625 12.296875 6.769531 12.71875 7.117188 13.007812 C 7.453125 14.320312 8.144531 15.3125 8.398438 15.652344 L 8.398438 16.847656 C 8.398438 17.1875 8.214844 17.496094 7.917969 17.660156 L 4.644531 19.441406 C 4.542969 19.5 4.4375 19.566406 4.335938 19.640625 C 2.183594 17.707031 0.828125 14.90625 0.828125 11.792969 C 0.828125 5.976562 5.5625 1.242188 11.378906 1.242188 C 17.199219 1.242188 21.929688 5.976562 21.929688 11.792969 C 21.929688 12.023438 22.117188 12.207031 22.34375 12.207031 C 22.574219 12.207031 22.757812 12.023438 22.757812 11.792969 C 22.757812 5.519531 17.652344 0.414062 11.378906 0.414062 C 5.105469 0.414062 0 5.519531 0 11.792969 C 0 15.105469 1.425781 18.09375 3.695312 20.175781 L 3.683594 20.183594 L 4.050781 20.496094 C 4.074219 20.515625 4.101562 20.535156 4.125 20.554688 C 4.320312 20.714844 4.523438 20.871094 4.730469 21.019531 C 4.796875 21.066406 4.867188 21.117188 4.933594 21.164062 C 5.15625 21.316406 5.382812 21.460938 5.613281 21.597656 C 5.664062 21.625 5.714844 21.65625 5.765625 21.683594 C 6.019531 21.828125 6.277344 21.964844 6.542969 22.089844 C 6.5625 22.097656 6.582031 22.109375 6.601562 22.117188 C 7.46875 22.519531 8.390625 22.8125 9.355469 22.988281 C 9.378906 22.992188 9.40625 22.996094 9.429688 23 C 9.730469 23.054688 10.035156 23.09375 10.339844 23.121094 C 10.378906 23.125 10.414062 23.128906 10.453125 23.132812 C 10.757812 23.15625 11.066406 23.171875 11.378906 23.171875 C 11.609375 23.171875 11.792969 22.988281 11.792969 22.757812 C 11.792969 22.53125 11.609375 22.34375 11.378906 22.34375 Z M 11.378906 22.34375"/>
</svg>

<svg xmlns="http://www.w3.org/2000/svg" width="32" height="32" viewBox="0 0 24 24">
    <path d="M19.035 13.656a4.97 4.97 0 0 0-4.965 4.965 4.97 4.97 0 0 0 4.965 4.965A4.97 4.97 0 0 0 24 18.62a4.97 4.97 0 0 0-4.965-4.965zm0 9.102a4.141 4.141 0 0 1-4.137-4.137 4.141 4.141 0 0 1 4.137-4.137 4.141 4.141 0 0 1 4.137 4.137 4.141 4.141 0 0 1-4.137 4.137zm0 0"/>
    <path d="M21.516 18.207h-2.067v-2.07a.414.414 0 0 0-.828 0v2.484c0 .227.184.414.414.414h2.48a.414.414 0 0 0 0-.828zm0 0"/>
    <path d="M11.379 22.344c-.262 0-.524-.012-.785-.032l-.133-.011a12.918 12.918 0 0 1-.781-.094c-.012-.004-.024-.004-.035-.008a10.317 10.317 0 0 1-1.61-.402l-.05-.016c-.258-.09-.516-.187-.77-.297H7.21a10.71 10.71 0 0 1-.707-.34c-.031-.015-.063-.027-.09-.046-.21-.11-.418-.235-.625-.36-.059-.039-.117-.078-.18-.117a8.741 8.741 0 0 1-.609-.43c.016-.007.027-.015.043-.02l3.27-1.784c.562-.309.914-.899.914-1.54V15.36l-.098-.117a6.925 6.925 0 0 1-1.242-2.57l-.035-.164-.141-.094a.687.687 0 0 1-.32-.574V10.37c0-.191.082-.371.23-.504l.137-.125V7.437l-.004-.054c0-.008-.121-1.004.578-1.805.598-.68 1.625-1.027 3.047-1.027 1.418 0 2.441.344 3.039 1.02.703.792.586 1.804.586 1.816L15 9.742l.137.125c.148.133.23.313.23.508v1.465a.69.69 0 0 1-.488.652.413.413 0 0 0 .242.79 1.501 1.501 0 0 0 1.074-1.442v-1.465c0-.36-.133-.707-.367-.98V7.46c.02-.215.098-1.426-.781-2.426-.762-.87-1.996-1.312-3.668-1.312-1.672 0-2.906.441-3.668 1.312-.879 1-.8 2.211-.781 2.426v1.934a1.508 1.508 0 0 0-.367.976v1.469c0 .457.207.879.554 1.168.336 1.312 1.028 2.305 1.281 2.644v1.196c0 .34-.183.648-.48.812l-3.273 1.781a3.427 3.427 0 0 0-.31.2 10.524 10.524 0 0 1-3.507-7.848c0-5.816 4.734-10.55 10.55-10.55 5.821 0 10.552 4.734 10.552 10.55a.414.414 0 0 0 .828 0c0-6.273-5.106-11.379-11.38-11.379C5.106.414 0 5.52 0 11.793c0 3.312 1.426 6.3 3.695 8.383l-.011.008.367.312c.023.02.05.04.074.059.195.16.398.316.605.465.067.046.137.097.204.144.222.152.449.297.68.434.05.027.1.058.152.086.254.144.511.28.777.406.02.008.039.02.059.027.867.403 1.789.695 2.753.871L9.43 23c.3.055.605.094.91.121l.113.012c.305.023.613.039.926.039a.414.414 0 0 0 0-.828zm0 0"/>
</svg>
